X: 96
T:Bluebells of Bearnas, The
T:Miss Crawford's
S:Donegal Fiddle Tutor Vol.2
Z:https://nigelgatherer.com/
L:1/8
M:4/4
K:A
ec | (3ABA GA FAEc | BEcE dEcE | (3ABA GA FAEc | BEGB A2 
cB | A2 GA FAED | CEAc dcdf | eceg fdfa | gbga a2 ||
(3feg | aA (3AAA aAce | dcBA GBEg | aA (3AAA aAce | GABc defg | 
a2 gb aece | dcBc dfed | ceAc dfBa | gbeg a2 |]

